;FLAVOR:Marlin
;TIME:522
;Filament used: 0.506158m
;Layer height: 0.4
;MINX:-19.385
;MINY:-21.85
;MINZ:0.4
;MAXX:19.397
;MAXY:21.85
;MAXZ:5.6
;Generated with Cura_SteamEngine 4.8.0
M140 S60
M105
M190 S60
M104 S195
M105
M109 S195
M82 ;absolute extrusion mode
G21 ;metric values
G90 ;absolute positioning
M82 ;set extruder to absolute mode
M107 ;start with the fan off
G28 ;Home all axes (max endstops)
G1 Z15.0 F9000 ;move the platform down 15mm
G92 E0 ;zero the extruded length
G1 F200 E3 ;extrude 3mm of feed stock
G92 E0 ;zero the extruded length again
G1 F9000
;Put printing message on LCD screen
M117 Printing...
G92 E0
G92 E0
G1 F1500 E-6.5
;LAYER_COUNT:14
;LAYER:0
M107
G0 F8400 X-10.766 Y-5.104 Z0.4
;TYPE:SKIRT
G1 F1500 E0.20788
G1 F420 X-9.936 Y-7.693 E0.38873
G1 X-9.172 Y-10.328 E0.57123
G1 X-8.491 Y-12.954 E0.75169
G1 X-7.875 Y-15.637 E0.93481
G1 X-7.345 Y-18.286 E1.11451
G1 X-7.231 Y-18.9 E1.15605
G1 X-7.094 Y-19.418 E1.1917
G1 X-6.882 Y-19.91 E1.22733
G1 X-6.598 Y-20.366 E1.26307
G1 X-6.25 Y-20.774 E1.29874
G1 X-5.846 Y-21.126 E1.33438
G1 X-5.393 Y-21.414 E1.37009
G1 X-4.903 Y-21.631 E1.40574
G1 X-4.386 Y-21.773 E1.44141
G1 X-3.793 Y-21.84 E1.4811
G1 X-3.371 Y-21.85 E1.50918
G1 X15.144 Y-21.85 E2.74081
G1 X15.842 Y-21.84 E2.78724
G1 X16.376 Y-21.792 E2.82291
G1 X16.897 Y-21.666 E2.85856
G1 X17.394 Y-21.463 E2.89427
G1 X17.855 Y-21.189 E2.92995
G1 X18.27 Y-20.85 E2.96559
G1 X18.63 Y-20.452 E3.00129
G1 X18.927 Y-20.006 E3.03694
G1 X19.155 Y-19.52 E3.07265
G1 X19.307 Y-19.006 E3.1083
G1 X19.388 Y-18.346 E3.15253
G1 X19.397 Y-17.945 E3.17922
G1 X19.388 Y-17.382 E3.21667
G1 X19.365 Y-17.031 E3.24007
G1 X19.038 Y-14.171 E3.43156
G1 X18.805 Y-11.449 E3.61329
G1 X18.653 Y-8.765 E3.79211
G1 X18.574 Y-5.998 E3.97625
G1 X18.574 Y-3.303 E4.15552
G1 X18.651 Y-.535 E4.33972
G1 X18.803 Y2.15 E4.51861
G1 X19.035 Y4.875 E4.70054
G1 X19.212 Y6.439 E4.80524
G1 X19.215 Y6.527 E4.8111
G1 X19.366 Y7.84 E4.89901
G1 X19.395 Y8.389 E4.93558
G1 X19.397 Y8.556 E4.94669
G1 X19.389 Y9.101 E4.98295
G1 X19.341 Y9.635 E5.01862
G1 X19.214 Y10.156 E5.05429
G1 X19.091 Y10.483 E5.07753
G1 X18.647 Y11.502 E5.15147
G1 X18.419 Y12.006 E5.18827
G1 X17.367 Y14.517 E5.36936
G1 X16.377 Y17.08 E5.55213
G1 X16.159 Y17.671 E5.59404
G1 X15.982 Y18.062 E5.62259
G1 X15.669 Y18.658 E5.66737
G1 X15.273 Y19.258 E5.71519
G1 X14.838 Y19.773 E5.76003
G1 X14.398 Y20.198 E5.80072
G1 X13.996 Y20.525 E5.8352
G1 X13.737 Y20.719 E5.85672
G1 X13.297 Y20.989 E5.89106
G1 X12.69 Y21.292 E5.93619
G1 X12.122 Y21.507 E5.97659
G1 X11.591 Y21.657 E6.01329
G1 X11.487 Y21.683 E6.02043
G1 X10.972 Y21.772 E6.05519
G1 X10.316 Y21.833 E6.09902
G1 X10.078 Y21.843 E6.11486
G1 X9.498 Y21.85 E6.15345
G1 X-12.246 Y21.85 E7.59986
G1 X-12.944 Y21.84 E7.6463
G1 X-13.495 Y21.803 E7.68303
G1 X-13.871 Y21.76 E7.70821
G1 X-14.464 Y21.641 E7.74844
G1 X-15.09 Y21.451 E7.79196
G1 X-15.682 Y21.204 E7.83463
G1 X-16.243 Y20.904 E7.87695
G1 X-16.334 Y20.851 E7.88395
G1 X-16.81 Y20.52 E7.92252
G1 X-17.357 Y20.058 E7.97015
G1 X-17.773 Y19.628 E8.00995
G1 X-18.194 Y19.097 E8.05502
G1 X-18.52 Y18.583 E8.09551
G1 X-18.835 Y17.961 E8.14189
G1 X-19.045 Y17.419 E8.18056
G1 X-19.223 Y16.776 E8.22494
G1 X-19.33 Y16.155 E8.26686
G1 X-19.374 Y15.623 E8.30237
G1 X-19.385 Y15.428 E8.31536
G1 X-19.361 Y14.839 E8.35457
G1 X-19.295 Y14.312 E8.3899
G1 X-19.264 Y14.112 E8.40336
G1 X-19.13 Y13.55 E8.4418
G1 X-18.905 Y12.904 E8.4873
G1 X-18.671 Y12.396 E8.52451
G1 X-17.269 Y9.881 E8.71604
G1 X-16.019 Y7.483 E8.89593
G1 X-14.812 Y4.996 E9.07982
G1 X-13.694 Y2.514 E9.2609
G1 X-12.662 Y0.041 E9.43915
G1 X-11.65 Y-2.589 E9.62661
G1 X-10.766 Y-5.104 E9.80394
G0 F8400 X-10.383 Y-4.986
G1 F420 X-9.546 Y-7.597 E9.98633
G1 X-8.795 Y-10.19 E10.1659
G1 X-8.098 Y-12.878 E10.35062
G1 X-7.488 Y-15.534 E10.5319
G1 X-6.953 Y-18.208 E10.7133
G1 X-6.838 Y-18.826 E10.75512
G1 X-6.707 Y-19.315 E10.78879
G1 X-6.5 Y-19.776 E10.82241
G1 X-6.223 Y-20.199 E10.85604
G1 X-5.883 Y-20.573 E10.88967
G1 X-5.488 Y-20.889 E10.92331
G1 X-5.049 Y-21.139 E10.95692
G1 X-4.576 Y-21.317 E10.99054
G1 X-4.08 Y-21.417 E11.0242
G1 X-3.461 Y-21.449 E11.06543
G1 X15.138 Y-21.45 E12.30264
G1 X15.836 Y-21.44 E12.34907
G1 X16.339 Y-21.393 E12.38268
G1 X16.829 Y-21.267 E12.41633
G1 X17.293 Y-21.065 E12.45
G1 X17.719 Y-20.793 E12.48362
G1 X18.097 Y-20.458 E12.51722
G1 X18.417 Y-20.067 E12.55083
G1 X18.672 Y-19.63 E12.58448
G1 X18.855 Y-19.159 E12.6181
G1 X18.962 Y-18.665 E12.65172
G1 X18.996 Y-18.097 E12.68957
G1 X18.997 Y-17.952 E12.69922
G1 X18.988 Y-17.389 E12.73667
G1 X18.967 Y-17.077 E12.75747
G1 X18.64 Y-14.215 E12.94909
G1 X18.408 Y-11.508 E13.12982
G1 X18.253 Y-8.765 E13.31258
G1 X18.174 Y-6.009 E13.49599
G1 X18.174 Y-3.291 E13.67679
G1 X18.251 Y-.539 E13.85992
G1 X18.405 Y2.204 E14.04268
G1 X18.632 Y4.87 E14.22066
G1 X18.815 Y6.484 E14.32871
G1 X18.818 Y6.578 E14.33497
G1 X18.968 Y7.885 E14.42248
G1 X18.995 Y8.402 E14.45692
G1 X18.997 Y8.55 E14.46676
G1 X18.989 Y9.095 E14.50302
G1 X18.941 Y9.598 E14.53663
G1 X18.724 Y10.323 E14.58697
G1 X18.283 Y11.337 E14.66053
G1 X18.044 Y11.865 E14.69908
G1 X17.001 Y14.355 E14.87866
G1 X16.002 Y16.939 E15.06295
G1 X15.785 Y17.528 E15.1047
G1 X15.628 Y17.876 E15.1301
G1 X15.315 Y18.472 E15.17488
G1 X14.963 Y19.006 E15.21743
G1 X14.536 Y19.51 E15.26137
G1 X14.145 Y19.887 E15.2975
G1 X13.743 Y20.214 E15.33197
G1 X13.112 Y20.635 E15.38243
G1 X12.517 Y20.932 E15.42666
G1 X12.012 Y21.123 E15.46258
G1 X11.494 Y21.268 E15.49836
G1 X10.932 Y21.374 E15.5364
G1 X10.295 Y21.434 E15.57896
G1 X10.074 Y21.443 E15.59368
G1 X9.494 Y21.45 E15.63226
G1 X-12.24 Y21.45 E17.07801
G1 X-12.938 Y21.44 E17.12445
G1 X-13.45 Y21.405 E17.15859
G1 X-13.826 Y21.362 E17.18376
G1 X-14.352 Y21.257 E17.21944
G1 X-14.969 Y21.07 E17.26233
G1 X-15.495 Y20.85 E17.30026
G1 X-16.041 Y20.558 E17.34144
G1 X-16.132 Y20.505 E17.34845
G1 X-16.555 Y20.211 E17.38272
G1 X-17.093 Y19.757 E17.42954
G1 X-17.463 Y19.375 E17.46492
G1 X-17.875 Y18.855 E17.50905
G1 X-18.165 Y18.398 E17.54506
G1 X-18.475 Y17.787 E17.59063
G1 X-18.662 Y17.305 E17.62502
G1 X-18.836 Y16.674 E17.66856
G1 X-18.931 Y16.122 E17.70582
G1 X-18.975 Y15.59 E17.74133
G1 X-18.985 Y15.411 E17.75326
G1 X-18.964 Y14.888 E17.78808
G1 X-18.899 Y14.373 E17.82261
G1 X-18.868 Y14.173 E17.83607
G1 X-18.749 Y13.674 E17.87019
G1 X-18.53 Y13.042 E17.91469
G1 X-18.322 Y12.591 E17.94772
G1 X-16.923 Y10.081 E18.13887
G1 X-15.649 Y7.636 E18.32227
G1 X-14.466 Y5.198 E18.50253
G1 X-13.314 Y2.642 E18.68903
G1 X-12.278 Y0.159 E18.868
G1 X-11.286 Y-2.419 E19.05175
G1 X-10.383 Y-4.986 E19.23276
G1 F1500 E12.73276
;MESH:wemos-radiation-mount v3.stl
G0 F8400 X-4.366 Y-4.986
G0 X-3.281 Y-4.986
G0 X-2.701 Y-17.25
;TYPE:WALL-INNER
G1 F1500 E19.44064
G1 F420 X-.501 Y-17.25 E19.58698
G1 X-.501 Y9.25 E21.34977
G1 X12 Y9.25 E22.18134
G1 X12 Y12.343 E22.38708
G1 X12 Y12.562 E22.40165
G1 X11.999 Y12.664 E22.40844
G1 X11.874 Y12.562 E22.41249
G1 X11.678 Y12.466 E22.42278
G1 X11.221 Y12.241 E22.45667
G1 X10.448 Y12.061 E22.50946
G1 X9.66 Y12.075 E22.56189
G1 X8.952 Y12.249 E22.61039
G1 X8.502 Y12.481 E22.64406
G1 X8.246 Y12.612 E22.66319
G1 X8.199 Y12.653 E22.66734
G1 X8.199 Y12.612
G1 X8.199 Y12.324 E22.6793
G1 X8.199 Y12.05 E22.69752
G1 X-7.131 Y12.05 E23.71728
G1 X-7.132 Y12.05 E23.71735
G1 X-8.494 Y12.05 E23.80795
G1 X-7.189 Y11.66 E23.85373
G1 X-2.701 Y10.318 E24.16533
G1 X-2.701 Y-17.25 E25.99916
G0 F8400 X-3.101 Y-17.65
G1 F420 X-.101 Y-17.65 E26.19873
G1 X-.101 Y8.85 E27.96151
G1 X12.4 Y8.85 E28.79308
G1 X12.4 Y13.135 E29.07812
G1 X12.4 Y13.339 E29.09169
G1 X12.399 Y13.608 E29.10959
G1 X12.196 Y13.339 E29.11779
G1 X12.038 Y13.211 E29.12833
G1 X11.657 Y12.901 E29.16101
G1 X11.086 Y12.62 E29.20334
G1 X10.406 Y12.462 E29.24978
G1 X9.712 Y12.474 E29.29595
G1 X9.093 Y12.626 E29.33835
G1 X8.472 Y12.945 E29.38479
G1 X8.155 Y13.222 E29.41279
G1 X7.95 Y13.402 E29.43094
G1 X7.799 Y13.609 E29.44798
G1 X7.799 Y13.402 E29.44989
G1 X7.799 Y13.129 E29.46291
G1 X7.799 Y12.45 E29.50808
G1 X-9.865 Y12.45 E30.68309
G1 X-9.866 Y12.45 E30.68316
G1 X-11.228 Y12.45 E30.77376
G1 X-9.923 Y12.06 E30.81954
G1 X-3.101 Y10.02 E31.2932
G1 X-3.101 Y-17.65 E33.13382
G0 F8400 X0.071 Y8.678
G0 X7.627 Y12.622
G0 X7.622 Y13.992
G0 X7.503 Y15.061
G0 X7.798 Y17.115
G1 F420 X8.065 Y17.393 E33.15946
G1 X8.261 Y17.597 E33.17827
G1 X8.345 Y17.65 E33.18488
G1 X8.261 Y17.65 E33.185
G1 X7.798 Y17.65 E33.20503
G1 X7.798 Y17.115 E33.22537
G0 F8400 X8.098 Y16.85
;TYPE:WALL-OUTER
G1 F420 X8.516 Y17.285 E33.2655
G1 X9.023 Y17.605 E33.30538
G1 X9.162 Y17.655 E33.31521
G1 X9.537 Y17.787 E33.34165
G1 X10.116 Y17.848 E33.38038
G1 X10.135 Y17.85 E33.38165
G1 X10.501 Y17.799 E33.40623
G1 X10.73 Y17.767 E33.42162
G1 X10.968 Y17.678 E33.43852
G1 X11.241 Y17.576 E33.4579
G1 X11.424 Y17.452 E33.47261
G1 X11.738 Y17.238 E33.49789
G1 X11.809 Y17.161 E33.50485
G1 X12.108 Y16.838 E33.53413
G1 X12.146 Y16.772 E33.5392
G1 X12.407 Y16.316 E33.57415
G1 X12.545 Y15.822 E33.60827
G1 X12.569 Y15.737 E33.61414
G1 X12.588 Y15.33 E33.64125
G1 X12.595 Y15.191 E33.6505
G1 X12.484 Y14.6 E33.69051
G1 X12.404 Y14.425 E33.70331
G1 X12.236 Y14.055 E33.73034
G1 X11.906 Y13.619 E33.76671
G1 X11.44 Y13.24 E33.80667
G1 X10.951 Y12.999 E33.84293
G1 X10.364 Y12.863 E33.88301
G1 X9.764 Y12.873 E33.92293
G1 X9.234 Y13.003 E33.95923
G1 X8.699 Y13.278 E33.99924
G1 X8.247 Y13.674 E34.03922
G1 X7.925 Y14.114 E34.07549
G1 X7.793 Y14.429 E34.09821
G1 X7.694 Y14.669 E34.11548
G1 X7.604 Y15.206 E34.1517
G1 X7.64 Y15.807 E34.19175
G1 X7.794 Y16.291 E34.22553
G1 X7.822 Y16.379 E34.23168
G1 X8.098 Y16.85 E34.26799
G0 F8400 X8.236 Y16.994
G0 X7.919 Y17.298
G0 X7.398 Y17.849
G1 F420 X7.398 Y16.315 E34.37003
G1 X7.398 Y15.807 E34.39724
G1 X7.398 Y15.206 E34.41962
G1 X7.398 Y14.669 E34.442
G1 X7.398 Y14.409 E34.4571
G1 X7.399 Y13.05 E34.5475
G1 X7.399 Y12.85 E34.5608
G1 X7.199 Y12.85 E34.56942
G1 X-12.568 Y12.85 E35.88432
G1 X-12.913 Y12.85 E35.90727
G1 X-13.491 Y12.921 E35.94601
G1 X-13.603 Y12.961 E35.95392
G1 X-13.681 Y12.989 E35.95943
G1 X-14.001 Y13.105 E35.98208
G1 X-14.155 Y13.204 E35.99425
G1 X-14.501 Y13.428 E36.02167
G1 X-14.549 Y13.479 E36.02633
G1 X-14.908 Y13.862 E36.06125
G1 X-15.172 Y14.309 E36.09578
G1 X-15.183 Y14.328 E36.09724
G1 X-15.319 Y14.766 E36.12775
G1 X-15.36 Y14.898 E36.13695
G1 X-15.382 Y15.27 E36.16174
G1 X-15.395 Y15.49 E36.1764
G1 X-15.354 Y15.753 E36.1941
G1 X-15.31 Y16.026 E36.2125
G1 X-15.219 Y16.244 E36.22821
G1 X-15.081 Y16.574 E36.252
G1 X-15.007 Y16.678 E36.2605
G1 X-14.766 Y17.015 E36.28805
G1 X-14.717 Y17.058 E36.29239
G1 X-14.32 Y17.41 E36.32769
G1 X-13.869 Y17.645 E36.36151
G1 X-13.791 Y17.686 E36.36738
G1 X-13.373 Y17.795 E36.39611
G1 X-13.273 Y17.821 E36.40298
G1 X-12.909 Y17.849 E36.42727
G1 X-12.891 Y17.849 E36.42847
G1 X7.398 Y17.849 E37.7781
G0 F8400 X7.398 Y17.649
G0 X7.838 Y17.61
G0 X7.398 Y18.05
G1 F420 X-12.891 Y18.05 E38.45629
G1 X-12.928 Y18.047 E38.45784
G1 X-13.292 Y18.01 E38.46961
G1 X-13.425 Y17.996 E38.47452
G1 X-13.846 Y17.867 E38.48915
G1 X-13.965 Y17.83 E38.49389
G1 X-14.422 Y17.579 E38.51166
G1 X-14.446 Y17.559 E38.51321
G1 X-14.853 Y17.213 E38.53109
G1 X-14.916 Y17.133 E38.53505
G1 X-15.177 Y16.8 E38.54924
G1 X-15.248 Y16.659 E38.55494
G1 X-15.415 Y16.327 E38.56751
G1 X-15.484 Y16.075 E38.57646
G1 X-15.564 Y15.787 E38.58658
G1 X-15.582 Y15.503 E38.59632
G1 X-15.598 Y15.258 E38.60496
G1 X-15.544 Y14.873 E38.61819
G1 X-15.52 Y14.704 E38.62436
G1 X-15.366 Y14.264 E38.64011
G1 X-15.346 Y14.207 E38.64274
G1 X-15.079 Y13.76 E38.66007
G1 X-15.073 Y13.75 E38.66065
G1 X-15.055 Y13.73 E38.66244
G1 X-14.7 Y13.338 E38.68021
G1 X-14.613 Y13.275 E38.68438
G1 X-14.271 Y13.026 E38.69869
G1 X-14.078 Y12.938 E38.70616
G1 X-13.753 Y12.79 E38.71816
G1 X-13.674 Y12.764 E38.72116
G1 X-13.549 Y12.727 E38.7258
G1 X-13 Y12.563 E38.75016
G1 X-12.67 Y12.465 E38.7702
G1 X-3.501 Y9.722 E39.40683
G1 X-3.501 Y-18.05 E41.25423
G1 X0.299 Y-18.05 E41.50701
G1 X15.599 Y-18.05 E42.52477
G1 X15.599 Y-17.65 E42.55137
G1 X0.299 Y-17.65 E43.56913
G1 X0.299 Y8.45 E45.30531
G1 X15.599 Y8.45 E46.32307
G1 X15.599 Y8.85 E46.34968
G1 X12.8 Y8.851 E46.53587
G1 X12.8 Y14.407 E46.90546
G1 X12.8 Y14.6 E46.91698
G1 X12.8 Y15.191 E46.94253
G1 X12.799 Y15.34 E46.94784
G1 X12.757 Y15.756 E46.9619
G1 X12.744 Y15.877 E46.96645
G1 X12.594 Y16.372 E46.98376
G1 X12.582 Y16.412 E46.98583
G1 X12.326 Y16.874 E47.00367
G1 X12.253 Y16.96 E47.00798
G1 X11.963 Y17.303 E47.023
G1 X11.855 Y17.387 E47.02806
G1 X11.545 Y17.628 E47.04139
G1 X11.323 Y17.739 E47.05001
G1 X11.044 Y17.879 E47.06066
G1 X10.779 Y17.949 E47.07017
G1 X10.532 Y18.014 E47.07918
G1 X10.152 Y18.045 E47.09244
G1 X10.095 Y18.05 E47.09497
G1 X9.537 Y18.05 E47.11628
G1 X9.139 Y18.05 E47.13829
G1 X7.398 Y18.05 E47.25411
G0 F8400 X7.198 Y18.05
G0 X7.838 Y17.611
G0 X7.565 Y15.2
G0 X7.715 Y14.022
G0 X8.589 Y11.997
;TYPE:SKIN
G1 F420 X8.589 Y11.66 E47.27652
G1 X-5.828 Y11.66 E48.23555
G1 X-2.311 Y10.608 E48.47974
G1 X-2.311 Y-16.86 E50.30692
G1 X-.891 Y-16.86 E50.40138
G1 X-.891 Y9.64 E52.16416
G1 X11.61 Y9.64 E52.99573
G1 X11.609 Y11.997 E53.15252
G1 X11.353 Y11.871 E53.1715
G1 X10.489 Y11.671 E53.2305
G1 X9.609 Y11.685 E53.28904
G1 X8.814 Y11.881 E53.34351
G1 X8.589 Y11.997 E53.36035
G0 F8400 X-3.978 Y11.294
G1 F420 X-3.794 Y11.479 E53.3777
G0 F8400 X-3.543 Y11.164
G1 F420 X-3.228 Y11.479 E53.40734
G0 F8400 X-3.108 Y11.033
G1 F420 X-2.662 Y11.479 E53.44929
G0 F8400 X-2.097 Y11.479
G1 F420 X-2.672 Y10.903 E53.50343
G0 F8400 X-2.237 Y10.773
G1 F420 X-1.531 Y11.479 E53.56985
G0 F8400 X-.965 Y11.479
G1 F420 X-2.131 Y10.313 E53.67954
G0 F8400 X-2.131 Y9.748
G1 F420 X-.4 Y11.479 E53.84238
G0 F8400 X0.165 Y11.479
G1 F420 X-2.131 Y9.182 E54.05842
G0 F8400 X-2.131 Y8.616
G1 F420 X-1.07 Y9.677 E54.15824
G0 F8400 X-.927 Y9.82
G1 F420 X0.731 Y11.479 E54.31426
G0 F8400 X1.296 Y11.479
G1 F420 X-.362 Y9.82 E54.47028
G0 F8400 X0.203 Y9.82
G1 F420 X1.862 Y11.479 E54.62635
G0 F8400 X2.428 Y11.479
G1 F420 X0.769 Y9.82 E54.78242
G0 F8400 X1.335 Y9.82
G1 F420 X2.993 Y11.479 E54.93844
G0 F8400 X3.559 Y11.479
G1 F420 X1.9 Y9.82 E55.09451
G0 F8400 X2.466 Y9.82
G1 F420 X4.125 Y11.479 E55.25057
G0 F8400 X4.69 Y11.479
G1 F420 X3.032 Y9.82 E55.4066
G0 F8400 X3.597 Y9.82
G1 F420 X5.256 Y11.479 E55.56266
G0 F8400 X5.822 Y11.479
G1 F420 X4.163 Y9.82 E55.71873
G0 F8400 X4.729 Y9.82
G1 F420 X6.388 Y11.479 E55.8748
G0 F8400 X6.953 Y11.479
G1 F420 X5.294 Y9.82 E56.03087
G0 F8400 X5.86 Y9.82
G1 F420 X7.519 Y11.479 E56.18694
G0 F8400 X8.085 Y11.479
G1 F420 X6.426 Y9.82 E56.34301
G0 F8400 X6.991 Y9.82
G1 F420 X8.65 Y11.479 E56.49908
G0 F8400 X8.768 Y11.597
G1 F420 X8.855 Y11.684 E56.50726
G0 F8400 X9.309 Y11.571
G1 F420 X7.557 Y9.82 E56.67203
G0 F8400 X8.123 Y9.82
G1 F420 X9.804 Y11.501 E56.83017
G0 F8400 X10.361 Y11.492
G1 F420 X8.688 Y9.82 E56.98751
G0 F8400 X9.254 Y9.82
G1 F420 X11.048 Y11.614 E57.15628
G0 F8400 X11.429 Y11.429
G1 F420 X9.82 Y9.82 E57.30764
G0 F8400 X10.385 Y9.82
G1 F420 X11.429 Y10.863 E57.40581
G0 F8400 X11.429 Y10.298
G1 F420 X10.951 Y9.82 E57.45077
G0 F8400 X-1.07 Y9.111
G1 F420 X-2.131 Y8.051 E57.55054
G0 F8400 X-2.131 Y7.485
G1 F420 X-1.07 Y8.546 E57.65035
G0 F8400 X-1.07 Y7.98
G1 F420 X-2.131 Y6.919 E57.75016
G0 F8400 X-2.131 Y6.354
G1 F420 X-1.07 Y7.414 E57.84993
G0 F8400 X-1.07 Y6.849
G1 F420 X-2.131 Y5.788 E57.94974
G0 F8400 X-2.131 Y5.222
G1 F420 X-1.07 Y6.283 E58.04955
G0 F8400 X-1.07 Y5.717
G1 F420 X-2.131 Y4.657 E58.14932
G0 F8400 X-2.131 Y4.091
G1 F420 X-1.07 Y5.151 E58.24908
G0 F8400 X-1.07 Y4.586
G1 F420 X-2.131 Y3.525 E58.3489
G0 F8400 X-2.131 Y2.959
G1 F420 X-1.07 Y4.02 E58.44871
G0 F8400 X-1.07 Y3.454
